azure.svg

<svg viewBox="0 0 24 24" xmlns="http://www.w3.org/2000/svg"><defs><linearGradient gradientTransform="matrix(0.272748 0 0 -0.272748 292.112 42.0024)" gradientUnits="userSpaceOnUse" id="LinearGradient" x1="-1032.17" x2="-1059.21" y1="145.312" y2="65.426"><stop offset="0" stop-color="#114a8b"/><stop offset="1" stop-color="#0669bc"/></linearGradient><linearGradient gradientTransform="matrix(0.272748 0 0 -0.272748 292.112 42.0024)" gradientUnits="userSpaceOnUse" id="LinearGradient_2" x1="-1023.72" x2="-1029.98" y1="108.083" y2="105.968"><stop offset="0" stop-color="#000000" stop-opacity="0.3"/><stop offset="0.071" stop-color="#000000" stop-opacity="0.2"/><stop offset="0.321" stop-color="#000000" stop-opacity="0.1"/><stop offset="0.623" stop-color="#000000" stop-opacity="0.05"/><stop offset="1" stop-color="#000000" stop-opacity="0"/></linearGradient><linearGradient gradientTransform="matrix(0.272748 0 0 -0.272748 292.112 42.0024)" gradientUnits="userSpaceOnUse" id="LinearGradient_3" x1="-1027.17" x2="-997.482" y1="147.642" y2="68.561"><stop offset="0" stop-color="#3ccbf4"/><stop offset="1" stop-color="#2892df"/></linearGradient></defs><path d="M8.00093 0.693094L15.1027 0.693094L7.73036 22.5367C7.575 22.9969 7.14341 23.3068 6.65765 23.3069L1.13068 23.3069C0.76653 23.3069 0.424653 23.1316 0.212249 22.8358C-0.000155191 22.54-0.0570793 22.16 0.0593258 21.815L6.92794 1.46333C7.08325 1.00289 7.515 0.692848 8.00093 0.692821L8.00093 0.693094Z" fill="url(#LinearGradient)" fill-rule="nonzero" opacity="1" stroke="none"/><path d="M18.3209 15.3443L7.05913 15.3443C6.84487 15.3441 6.65229 15.475 6.57368 15.6743C6.49507 15.8736 6.54645 16.1007 6.7032 16.2468L13.9397 23.0012C14.1504 23.1977 14.4279 23.307 14.716 23.3069L21.0928 23.3069L18.3209 15.3443Z" fill="#0078d4" fill-rule="nonzero" opacity="1" stroke="none"/><path d="M8.00093 0.693094C7.50921 0.691207 7.07343 1.00939 6.92548 1.47834L0.0677809 21.7964C-0.0564973 22.1428-0.00415862 22.5281 0.208035 22.8288C0.42023 23.1295 0.765652 23.3079 1.13368 23.3069L6.80329 23.3069C7.23319 23.2301 7.58851 22.9279 7.73336 22.5159L9.10092 18.4855L13.9858 23.0418C14.1905 23.2111 14.4473 23.3047 14.713 23.3069L21.0661 23.3069L18.2797 15.3443L10.157 15.3462L15.1284 0.693094L8.00093 0.693094Z" fill="url(#LinearGradient_2)" fill-rule="nonzero" opacity="1" stroke="none"/><path d="M17.0717 1.46224C16.9166 1.00254 16.4855 0.693037 16.0004 0.693094L8.08548 0.693094C8.57061 0.693121 9.00168 1.00259 9.15684 1.46224L16.0257 21.8147C16.1422 22.1598 16.0853 22.5399 15.8729 22.8358C15.6605 23.1317 15.3186 23.3072 14.9544 23.3072L22.8695 23.3072C23.2337 23.3071 23.5756 23.1316 23.7879 22.8357C24.0002 22.5398 24.0571 22.1598 23.9406 21.8147L17.0717 1.46224Z" fill="url(#LinearGradient_3)" fill-rule="nonzero" opacity="1" stroke="none"/></svg>

<svg viewBox="0 0 24 24" xmlns="http://www.w3.org/2000/svg"><defs><linearGradient gradientTransform="matrix(.27275 0 0 -.27275 292.112 42.002)" gradientUnits="userSpaceOnUse" id="a" x1="-1032.17" x2="-1059.21" y1="145.312" y2="65.426"><stop offset="0" stop-color="#114a8b"/><stop offset="1" stop-color="#0669bc"/></linearGradient><linearGradient gradientTransform="matrix(.27275 0 0 -.27275 292.112 42.002)" gradientUnits="userSpaceOnUse" id="b" x1="-1023.72" x2="-1029.98" y1="108.083" y2="105.968"><stop offset="0" stop-opacity=".3"/><stop offset=".071" stop-opacity=".2"/><stop offset=".321" stop-opacity=".1"/><stop offset=".623" stop-opacity=".05"/><stop offset="1" stop-opacity="0"/></linearGradient><linearGradient gradientTransform="matrix(.27275 0 0 -.27275 292.112 42.002)" gradientUnits="userSpaceOnUse" id="c" x1="-1027.17" x2="-997.482" y1="147.642" y2="68.561"><stop offset="0" stop-color="#3ccbf4"/><stop offset="1" stop-color="#2892df"/></linearGradient></defs><path d="M8 .693h7.103L7.73 22.537c-.155.46-.587.77-1.072.77H1.13a1.13 1.13 0 0 1-1.072-1.492L6.928 1.463c.155-.46.587-.77 1.073-.77Z" fill="url(#a)"/><path d="M18.32 15.344H7.06a.521.521 0 0 0-.357.903L13.94 23c.21.197.488.306.776.306h6.377l-2.772-7.963Z" fill="#0078d4"/><path d="M8 .693a1.123 1.123 0 0 0-1.075.785L.068 21.796a1.13 1.13 0 0 0 1.066 1.51h5.67c.43-.076.785-.378.93-.79l1.367-4.03 4.885 4.556c.204.17.461.263.727.265h6.353l-2.786-7.963-8.123.002L15.128.693H8.001Z" fill="url(#b)"/><path d="M17.072 1.462A1.13 1.13 0 0 0 16 .693H8.085c.486 0 .917.31 1.072.77l6.869 20.352a1.13 1.13 0 0 1-1.072 1.492h7.915a1.13 1.13 0 0 0 1.072-1.492L17.07 1.462Z" fill="url(#c)"/></svg>
